P1
#alterado por Fernando
32 32
11111111111111111111111111111111
11111111111110000000111111111111
11111111110000000000000111111111
11111111100000000000000011111111
11111110000001111110000000111111
11111100000111111111110000011111
11111000011111000001111100001111
11111000111000000000001110001111
11110001110000000000000111000111
11100001100000000000000011000011
11100011000000000000000001100011
11100011000000001000000001100011
11000011000000111110000001100001
11000110000001111111000000110001
11000110000001111111000000110001
11000110000011110111100000110001
11000110000001111111000000110001
11000110000001111111000000110001
11000111000000111110000001110001
11100011000000001000000001100011
11100011000000000000000001100011
11100001100000000000000011000011
11110001110000000000000111000111
11111000111000000000001110001111
11111000001111000001111000001111
11111100000111111111110000011111
11111110000001111111000000111111
11111111100000000000000011111111
11111111110000000000000111111111
11111111111110000000111111111111
11111111111111111111111111111111
11111111111111111111111111111111
