P1
150 180
111111111111111111111111111111111111111111111111111111111111111111111111111111111111111111111111111111111111111111111111111111111111111111111111111111
100000000000000000000000000000000000000000000000000000000000000000000000010110000000000000000000000000000000000000000000000000000000000000000000000001
100000000000000000000000000000000000000000000000000000000000000000000000001010000000000000000000000000000000000000000000000000000000000000000000000001
100000000000000000000000000000000000000000000000000000000000000000000000010110000000000000000000000000000000000000000000000000000000000000000000000001
100000000000000000000000000000000000000000000000000000000000000000000000000110000000000000000000000000000000000000000000000000000000000000000000000001
100000000000000000000000000000000000000000000000000000000000000000000000001010000000000000000000000000000000000000000000000000000000000000000000000001
100000000000000000000000000000000000000000000000000000000000000000000000100110000000000000000000000000000000000000000000000000000000000000000000000001
100000000000000000000000000000000000000000000000000000000000000000000000010110000000000000000000000000000000000000000000000000000000000000000000000001
100000000000000000000000000000000000000000000000000000000000000000000000000110000000000000000000000000000000000000000000000000000000000000000000000001
100000000000000000000000000000000000000000000000000000000000000000000000010110000000000000000000000000000000000000000000000000000000000000000000000001
100000000000000000000000000000000000000000000000000000000000000000000000001010000000000000000000000000000000000000000000000000000000000000000000000001
100000000000000000000000000000000000000000000000000000000000000000000000100111000000000000000000000000000000000000000000000000000000000000000000000001
100000000000000000000000000000000000000000000000000000000000000000000000010100000000000000000000000000000000000000000000000000000000000000000000000001
100000000000000000000000000000000000000000000000000000000000000000000000000011000000000000000000000000000000000000000000000000000000000000000000000001
100000000000000000000000000000000000000000000000000000000000000000000000100111000000000000000000000000000000000000000000000000000000000000000000000001
100000000000000000000000000000000000000000000000000000000000000000000000001001000000000000000000000000000000000000000000000000000000000000000000000001
100000000000000000000000000000000000000000000000000000000000000000000000010011000000000000000000000000000000000000000000000000000000000000000000000001
100000000000000000000000000000000000000000000000000000000000000000000000000101000000000000000000000000000000000000000000000000000000000000000000000001
100000000000000000000000000000000000000000000000000000000000000000000000010001000000000000000000000000000000000000000000000000000000000000000000000001
100000000000000000000000000000000000000000000000000000000000000000000000001111100000000000000000000000000000000000000000000000000000000000000000000001
100000000000000000000000000000000000000000000000000000000000000000000000010001000000000000000000000000000000000000000000000000000000000000000000000001
100000000000000000000000000000000000000000000000000000000000000000100010000111100000000000000000000000000000000000000000000000000000000000000000000001
100000000000000000000000000000000000000000000000000000000000000000100001011001000000000000000000000000000000000000000000000000000000000000000000000001
100000000000000000000000000000000000000000000000000000000000000001001101110001100000000000000000000000000000000000000000000000000000000000000000000001
100000000000000000000000000000000000000000000000000000000000000100010111100110100000000000000000000000000000000000000000000000000000000000000000000001
100000000000000000000000000000000000000000000000000000000000000001000101111001100000000000000000000000000000000000000000000000000000000000000000000001
100000000000000000000000000000000000000000000000000000000000000101010010111001100000000000000000000000000000000000000000000000000000000000000000000001
100000000000000000000000000000000000000000000000000000000000000000001001111101100000000000000000000000000000000000000000000000000000000000000000000001
100000000000000000000000000000000000000000000000000000000000000001001001011101100000000000000000000000000000000000000000000000000000000000000000000001
100000000000000000000000000000000000000000000000000000000000001000011010111110110000000000000000000000000000000000000000000000000000000000000000000001
100000000000000000000000000000000000000000000000000000000000000100100101111111100000000000000000000000000000000000000000000000000000000000000000000001
100000000000000000000000000000000000000000000000000000000000000010000010111101100000000000000000000000000000000000000000000000000000000000000000000001
100000000000000000000000000000000000000000000000000000000000010100010101111111100000000000000000000000000000000000000000000000000000000000000000000001
100000000000000000000000000000000000000000000000000000000000000001000000011111100000000000000000000000000000000000000000000000000000000000000000000001
100000000000000000000000000000000000000000000000000000000000000110001001111111100000000000000000000000000000000000000000000000000000000000000000000001
100000000000000000000000000000000000000000000000000000000000000000010001011111100000000000000000000000000000000000000000000000000000000000000000000001
100000000000000000000000000000000000000000000000000000000000000010010100111111100000000000000000000000000000000000000000000000000000000000000000000001
100000000000000000000000000000000000000000000000000000000000001000000001011111100000000000000000000000000000000000000000000000000000000000000000000001
100000000000000000000000000000000000000000000000000000000000000001010100101111000000000000000000000000000000000000000000000000000000000000000000000001
100000000000000000000000000000000000000000000000000000000000000000000011011111000000000000000000000000000000000000000000000000000000000000000000000001
100000000000000000000000000000000000000000000000000000000000000000100001011110000000000000000000000000000000000000000000000000000000000000000000000001
100000000000000000000000000000000000000000000000000000000000000001001000101110000000000000000000000000000000000000000000000000000000000000000000000001
100000000000000000000000000000000000000000000000000000000000000000001010011100000000000000000000000000000000000000000000000000000000000000000000000001
100000000000000000000000000000000000000000000000000000000000000000100010101000000000000000000000000000000000000000000000000000000000000000000000000001
100000000000000000000000000000000000000000000000000000000000000000010010010100000000000000000000000000000000000000000000000000000000000000000000000001
100000000000000000000000000000000000000000000000000000000000000001001001101010000000000000000000000000000000000000000000000000000000000000000000000001
100000000000000000000000000000000000000000000000000000000000000001101001010010100000000000000000000000000000000000000000000000000000000000000000000001
100000000000000000000000000000000000000000000000000000000000001000000010101101010110000000000000000000000000000000000000000000000000000000000000000001
100000000000000000000000000000000000000000000000000000000000010100100100101010101100100000000000000000000000000000000000000000000000000000000000000001
100000000000000000000000000000000000000000000000000000001001000110010110010001010111110100000000000000000000000000000000000000000000000000000000000001
100000000000000000000000000000000000000000000000000000000010010010101001111110011001111110000000000000000000000000000000000000000000000000000000000001
100000000000000000000000000000000000000000000000000010011000101001010111101011100101011011000000000000000000000000000000000000000000000000000000000001
100000000000000000000000000000000000000000000000000100100011100110110110111011110100011111100000000000000000000000000000000000000000000000000000000001
100000000000000000000000000000000000000000000000000000011000001001011001001110111110100111111000000000000000000000000000000000000000000000000000000001
100000000000000000000000000000000000000000000000010001010100101001000101111110111111100111111100000000000000000000000000000000000000000000000000000001
100000000000000000000000000000000000000000000000001000000010100110011010100111111111111011111110000000000000000000000000000000000000000000000000000001
100000000000000000000000000000000000000000000000010000100000001001100101011011011111111101111110000000000000000000000000000000000000000000000000000001
100000000000000000000000000000000000000000000000000101001001100000000010101011111111111110111111000000000000000000000000000000000000000000000000000001
100000000000000000000000000000000000000000000101000000010000100110011001101101111111111110111111100000000000000000000000000000000000000000000000000001
100000000000000000000000000000000000000000000000001000000010000010100110010111101111111111111111100000000000000000000000000000000000000000000000000001
100000000000000000000000000000000000000000000000100001001000001000010101101111011111111111111111110000000000000000000000000000000000000000000000000001
100000000000000000000000000000000000000000000000100000000010010001000110010001111111111111011111110000000000000000000000000000000000000000000000000001
100000000000000000000000000000000000000000000001000000000100010000101001100111101111111111111111110000000000000000000000000000000000000000000000000001
100000000000000000000000000000000000000000001000000100100000000110100100111100111111111111110111111000000000001010000000000000000000000000000000000001
100000000000000000000000000000000000000000000001000000010000001000010101011011101111111111111111111000000000011011000000000000000000000000000000000001
100000000000000000000000000000000000000000001000010000001001100001001010101001110111111111111110111000001001100100000000000000000000000000000000000001
100000000000000000000000000000000000000000000000000000000000000110100110001111011101111111111111111100010110010010000000000000000000000000000000000001
100000000000000000000000000000010000000000100001100001000000100000010101110100111111111111111111111000111101100110000000000000000000000000000000000001
100000000000000000000000000001001101000000000100000000001001001101101001100111111111111111111111111111110100011010000000000000000000000000000000000001
100000000000000000000000000000010010100000000000000000010000010000010101011010100111111111111111111111111101000110000000000000000000000000000000000001
100000000000000000000000000010010001110000001000000100000001001011000101111111111111111111111111111111111001100110000000000000000000000000000000000001
100000000000000000000000000000001100011100010001000010001101100000101010101111111111111111111111111111111100101110000000000000000000000000000000000001
100000000000000000000000000000100010111000010000000000011011010110001001111111111111111111111111111111111001011110000000000000000000000000000000000001
100000000000000000000000000000000100011110000000100101010110100100110011011111111111011111111111111111111110011110000000000101000000000000000000000001
100000000000000000000000000000000001010110000001000000111111110000000110111111111111111111111111111111111001011100000000110010110000000000000000000001
100000000000000000000000000000000110101111001000000001011111111000001001111111111111101111111111111111110100111100000010000101010000000000000000000001
100000000000000000000000000000000001001110010010000010111011111000000011111111111111111111111111111111111001111110001000000111011000000000000000000001
100000000000000000000000000000000100011111001000010001111111111001001011111111111111001111111111111111110110111100000001110001111000000000000000000001
100000000000000000000000000000000110010111010000000010011111111000101111111111111111101111111111111111100101111100001010000110111100000000000000000001
100000000000000000000000000000000001000111000001000000111111111000101111111111111111111111111111111111111011111000000000010101101110000000000000000001
100000000000000000000000000000000000010111100010000001111111110000001111111111111111111111111111111111011011111000001000010111111110000000000000000001
100000000000000000000000000000000001100111010000100000001111100001100101111111111110011111111111111111100011111000010001000101101110000000000000000001
100000000000000000000000000000000000100101101001000000011000000001001010111111111111011111111111111111011111110000001010100001111110000000000000000001
100000000000000000000000000000000000010011000000000100000000100000010101111111111110111111111111111111110111110000100000011111011111000000000000000001
100000000000000000000000000000000000000111100010000000000000000000010011111111111111111111111101111110101111110000100010011011011110000000000000000001
100000000000000000000000000000000000000101100000100000000000011000101010111111111111111111111111111111010111100000000100100101111111000000000000000001
100000000000000000000000000000000000001010111001000010100000000010010101111111111111111111111111111111111111000010100101000110111111000000000000000001
100000000000000000000000000000000000000101110000001000000010001001101011111111111111111111111111111111001100100000000000011011011111000000000000000001
100000000000000000000000000000000000000010110000010010000010000010111111111111111111111111111011111111111100100101010000100111111111000000000000000001
100000000000000000000000000000000000000001111000000000011000111111111111111111111111111111111111111111011000011000000101011001101011000000000000000001
100000000000000000000000000000000000000011001010011000100001011111111111111111111111111111111111111111111000001110000100001101111111000000000000000001
100000000000000000000000000000000000000000111100000010000101000111111111111111111111111111110111111110111101100000100001101011011111000000000000000001
100000000000000000000000000000000000000001011000001110001001100011111110011111111111111111101111111111111000000111000100011111111111000000000000000001
100000000000000000000000000000000000000000101110000000110110011000001010111111111111111111111111111101100000010000010001100001110111000000000000000001
100000000000000000000000000000000000000000010100010101100101101000000011111111111111111111111111111101110001100000010110010110011111000000000000000001
100000000000000000000000000000000000000000101011000000001010010111111111111111111111111111011111111111100000001011000100101011111111000000000000000001
100000000000000000000000000000000000000000000110010100100101011010111111111111111111111111111111111010100000001011001010101100111111000000000000000001
100000000000000000000000000000000000000000010101000000100110011011011011111111111111010001011111111111100000000000010101010111111111000000000000000001
100000000000000000000000000000000000000000001001000001001001010101101011111111111110101111111000111111000000000001100001101101111111100000000000000001
100000000000000000000000000000000000000000000100101000000000101010101101011011110110111111111000111001000000000000011010110111101101100000000000000001
100000000000000000000000000000000000000000000001010101000000010101101011111111011010111011100000000111000000000001100101010101011111100000000000000001
100000000000000000000000000000000000000000000100000000001001000000101001010001100111011111110000000000000000000000010011110110011111000000000000000001
100000000000000000000000000000000000000000000000000000010000000000001001101000011011111111100000000000000000000000000010000010111111100000000000000001
100000000000000000000000000000000000000000000000000100000010011000100000001010101111111111111010000000000000000000001000100101010111100000000000000001
100000000000000000000000000000000000000000000000000000000010001010100001010011111110111111110110000000000000000000100000000101100111100000000000000001
100000000000000000000000000000000000000000000001101000010000000000000110101110100010101001110001100000000000000000000010100110111111100000000000000001
100000000000000000000000000000000000000000000000100001010000010100000000011001010011000111100000010000000000000000001001000001011111100000000000000001
100000000000000000000000000000000000000000000000000000000001000010010100000000001000110001001010001000000000000000100000010100111111100000000000000001
100000000000000000000000000000000000000000000000000001001000010000100000100110010000010010010000010100000000000001001000000011111111100000000000000001
100000000000000000000000000000000000000000000110000000010000000010001001000000000010001001001010000000000000000000000001101110101111000000000000000001
100000000000000000000000000000000000000000000001100000000001000100000000000000001001000000000010000110100000000000101001001010111111000000000000000001
100000000000000000000000000000000000000000000000000101001000010000100010100010010000101001010000100000010000000001000000010101011111000000000000000001
100000000000000000000000000000000000000000000010000110000010001010000000000000000100100010100000000010101000000000101000010011111111000000000000000001
100000000000000000000000000000000000000001000000100000010000100000010010011001100000000100001001010000000110000110100001001010011111000000000000000001
100000000000000000000000000000000000000010101001000000001000000000000110010000000110110000100001100100111010100001011000110101111110000000000000000001
100000000000000000000000000000000000000000000000000100000010000101000000000001000000000001001000000001000111000000100010001010111110000000000000000001
100000000000000000000000000000000000000100000100101000000000010000100010000100001000101010001010100110011100001101110001011011111110000000000000000001
100000000000000000000000000000000000000010010010000010010110000001001000100010010001000000011000000000100010010010010101000101111100000000000000000001
100000000000000000000000000000000000010000100000000000000100000000100000000000001001011010100100001001011000000000111000101001111000000000000000000001
100000000000000000000000000000000000000100001010100100100000100000000010000100100000000000000001110001000010101110101110010111111000000000000000000001
100000000000000000000000000000000001000000000000000010000000000100000010100010011000001001100001000100101000100001001101100111110000000000000000000001
100000000000000000000000000000000000000111010101000000011001000000100000000000000001010000000100010101100010011010110110101111110000000000000000000001
100000000000000000000000000000000110101000001000000000000000100010001000000110001001000001101000010010000110010101111111011111100000000000000000000001
100000000000000000000000000000000000000010010000100101000010001000100010010000010000010100001010100101011001101001011110111111000000000000000000000001
100000000000000000000000000000000000010101000001000000000000000000000010001001001000010110100011100110100100001011101111111111000000000000000000000001
100000000000000000000000000000000110000000011000001010100101010001100000000000100001000000101000010001011010110111111111111100000000000000000000000001
100000000000000000000000000000000000000010111000011000000000010101001001100000000001010001001001100110101001000111111111111000000000000000000000000001
100000000000000000000000000000010010011000101010000001000010000000000000001001001000001000010010011101011010101011111111110000000000000000000000000001
100000000000000000000000000000000000000100101000000010001010001001001010001001010010000000110010101001001001000111111110000000000000000000000000000001
100000000000000000000000000000100110010010111001101000000000000000000000000000001000010110000101011110110111011011111000000000000000000000000000000001
100000000000000000000000000001010010010101111000010000000000000110010000100110100100010110100100100111101110100101110000000000000000000000000000000001
100000000000000000000000000000000000000000111000000001000101010000001010000000000001000000011001011001011001101011110000000000000000000000000000000001
100000000000000000000000000100001001000010111000001000011001110000001001000010000001110000101001100101011110010111100000000000000000000000000000000001
100000000000000000000000000000000000010100000101100000000000100110100000010100100100001010000010111101110011101001100000000000000000000000000000000001
100000000000000000000000000000010000000000000000000011000001111101010000010000001010010010000101010011001101110101100000000000000000000000000000000001
100000000000000000000000000010000000101010010000001000010110111111100110000010100101000100110010101110111011001011110000000000000000000000000000000001
100000000000000000000000000000001001100010000000001000011111111111010000011000000010001001010101101010011001110111100000000000000000000000000000000001
100000000000000000000000000000100000000000100010000001001011111110100110000011011111111111101001010111111111010111111000000000000000000000000000000001
100000000000000000000000001001000000000010001000100010010011111111111010111001111111111011111010101101100010011110111000000000000000000000000000000001
100000000000000000000000000000100010100100000001001000010101111111111111100100011111111101110001010101101111110111111000000000000000000000000000000001
100000000000000000000000000001000100000000000000000001000110111111110110110001011101111011110000101101110101101111101000000000000000000000000000000001
100000000000000000000000001000000010010000011000011000000000111111000011100101111111111111111010011011011111110111111100000000000000000000000000000001
100000000000000000000000000010000100000000000000010001100001001111110111110101011101110111111010010110101011111101111100000000000000000000000000000001
100000000000000000000000010000010000001010000010000000000100111111001010110001111111111111110001101010111101101111111100000000000000000000000000000001
100000000000000000000000000010000001010010000000000010010000101111111101010101111111111111111001010101011011101111111100000000000000000000000000000001
100000000000000000000000000000001000000000000010010000000001010111111110100111111011111011111100101011111011110111111100000000000000000000000000000001
100000000000000000000000001000000000001000010100011010011010011111111111101111111101111111111001001111011111101101111100000000000000000000000000000001
100000000000000000000000000010010000100000000010000000000000001111111110101101111111111111111100110101011011111111111110000000000000000000000000000001
100000000000000000000000000000001000001010000010000000000000101111111111011111111111111101111101101111110111111110111100000000000000000000000000000001
100000000000000000000000000001000001000000010000101001011010011111111111110101110111111111111000010010101110110111111110000000000000000000000000000001
100000000000000000000000000001011000101000001000001001000001011111111111111110111110111111111101101110100101101111111110000000000000000000000000000001
100000000000000000000000000000000001000001000001000000001000101111111111101111011111111111111100110111111111111011111110000000000000000000000000000001
100000000000000000000000000000011001000100100000000001000000111111111111111111111111111111111110011111111111011111111110000000000000000000000000000001
100000000000000000000000000000000010010000000100001000010110111111111111110110111001111111111100101001010110111110111110000000000000000000000000000001
100000000000000000000000000000100000011001100001101000000101111111111111110101111111111111111111011111111111111111111110000000000000000000000000000001
100000000000000000000000000000001001000101000100000001011010111111111111111111011111111111111100011001100101101111111111000000000000000000000000000001
100000000000000000000000000000000010000010000101100000100011111111111111110111111111111111111110111111111101110111111110000000000000000000000000000001
100000000000000000000000000000100000010100010000010110011111111111111110010111111111111111111110100110100111111101111111000000000000000000000000000001
100000000000000000000000000000001000000010011010101010011111111111111011101111110111111111111110010111111101111111111111000000000000000000000000000001
100000000000000000000000000000000010001000000000001001111111111111111111111101111111111111111110011110111111101111111111000000000000000000000000000001
100000000000000000000000000000100100000000000000000101111001111011110110101111101111111111111110011111011101111111111111000000000000000000000000000001
100000000000000000000000000000000001011000100110010001011010000110011011111111111111111111111110001001111111111111111111000000000000000000000000000001
100000000000000000000000000000000100010001100100000000100001011110011100011111111111111111111110011111110111101011111111100000000000000000000000000001
100000000000000000000000000000100000000000000000100110011010101111110001111111111111111111111110010111011111111111111111100000000000000000000000000001
100000000000000000000000000000000000000000100000000000011010011111110011111111111111111111111110011111011011111111111111100000000000000000000000000001
100000000000000000000000000000000100010000000010101001010001111110100111111111111111111111111100011011111111101111111111100000000000000000000000000001
100000000000000000000000000000010110011001100110001000011001111111111111111111111110111101100001101111111011111111111111110000000000000000000000000001
100000000000000000000000000000000000000000000000000001110110110101000111101000000000000001011110010110111111111111101111100000000000000000000000000001
100000000000000000000000000000000000000001000000100100000100101000001010000010101100100011101011101111101101111111111111110000000000000000000000000001
100000000000000000000000000000100110010100000110000000110010000010101000110100000001011101111110110111111111111111111111110000000000000000000000000001
100000000000000000000000000000000000000001100000000010100000001000010011000001011010101001110101011101111111111110111111110000000000000000000000000001
100000000000000000000000000000000100001000000100100100001010010010000100011000010101010111101111100111111101111011111111110000000000000000000000000001
100000000000000000000000000000000101001000000101010001001000101001001000001000101001010111111010011111111111111111111111110000000000000000000000000001
100000000000000000000000000000000000000001010000000000010010001000010011010010010110101010011110101011101011111111111111110000000000000000000000000001
100000000000000000000000000000000000100001000000001010100001000001010100101001011101011111110011101111111110111111111111110000000000000000000000000001
100000000000000000000000000000001001001000001001010000000100101001000010001001000010100101011110111011111111111111111111110000000000000000000000000001
100000000000000000000000000000001010001010101010000000000110000000101000001001010101101111011101010111111111111111111111110000000000000000000000000001
100000000000000000000000000000000000100000000000100110010000010110001010101001100010110101110011111111111111111111111111110000000000000000000000000001
100000000000000000000000000000000010001000100010010010010101010110010101010110111011011111111111111111110111111111111111110000000000000000000000000001
111111111111111111111111111111111111111111111111111111111111111111111111111111111111111111111111111111111111111111111111111111111111111111111111111111
