P1
# Created by GIMP version 2.10.6 PNM plug-in
128 128
00000000000000000000000000000000000000000000000000000000000000000000000000000000000000000000000000000000000000000000000000000000
00000000000000000000000000000000000000000000000000000000000000000000000000000000000000000000000000000000000000000000000000000000
00000000000000000000000000000000000000000000000000000000000000000000000000000000000000000000000000000000000000000000000000000000
00000000000000000000000000000000000000000000000000000000000000000000000000000000000000000000000000011100000000000000000000000000
00000000000000000000000000000000000000000000000000000000000000000000000000000000000000000000000000111110000000000000000000000000
00000000000000000000000000000000000000000000000000000000000000000000000000000000000000000000000000111110000000000000000000000000
00000000000000000000000000000000000000000000000000000000000000000000000000000000000000000000000000111110000000000000000000000000
00000000000000000000000000000000000000000000000000000000000000000000000000000000000000000000000001111111000000000000000000000000
00000000000000000000000000000000000000000000000000000000000000000000000000000000000000000000000001111111000000000000000000000000
00000000000000000000000000000000000000000000000000000000000000000000000000000000000000000000000011111111000000000000000000000000
00000000000000000000000000011000000000000000000000000000000000000000000000000000000000000000000011111111000000000000000000000000
00000000000000000000000000001000000000000000000000000000000000000000000000000000000000000000000111111111000000000000000000000000
00000000000000000000000000011000000000000000000000000000000000000000000000000000000000000000001111111111000000000000000000000000
00000000000000000000000000011100000000000000000000000000000000000000000000000000000000000000001111111111000000000000000000000000
00000000000000000000000000011100000000000000000000000000000000000000000000000000000000000000011111111111000000000000000000000000
00000000000000000000000000011110000000000000000000000000000000000000000000000000000000000000111111111111000000000000000000000000
00000000000000000000000000011111000000000000000000000000000000000000000000000000000000000001111111111111000000000000000000000000
00000000000000000000000000011111000000000000000000000000000000000000000000000000000000000111111101111111000000000000000000000000
00000000000000000000000000011111100000000000000000000000000000000000000000000000000000000111111111111111000000000000000000000000
00000000000000000000000000011111110000000000000000000000000000000000000000000000000000011111111111111111000000000000000000000000
00000000000000000000000000011111111000000000000000000000000000000000000000000000000000111111101111111111000000000000000000000000
00000000000000000000000000011111111100000000000000000000000000000000000000000000000011111111111111111111000000000000000000000000
00000000000000000000000000011110111110000000000000000000000000000000000000000000001111111110111111111111100000000000000000000000
00000000000000000000000000011111111111000000000000000000000000000000000000000000111111111111111111111111000000000000000000000000
00000000000000000000000000011101011111110000000000000000000000000000000000000011111111110111111111111111000000000000000000000000
00000000000000000000000000011110101111111000000000000000000000000000000000011111111110111111111111111111000000000000000000000000
00000000000000000000000000011111010101111110000000000001111111101000000111111111111111111111111111111111100000000000000000000000
00000000000000000000000000011101110101010111110000001010010101010101111111111111101011011111111111111111000000000000000000000000
00000000000000000000000000011110011010101101111111010110100000010110111111111101111111111111111111111111100000000000000000000000
00000000000000000000000000011011010000000010111111110100000000000011111111110111011111111101111111111111000000000000000000000000
00000000000000000000000000011101000000000001011111010000000000000000101101011101111011111111111111101111000000000000000000000000
00000000000000000000000000010100000000000000010101010000000000000000101011111111111111011111111111111111000000000000000000000000
00000000000000000000000000011000000000000000101101000000000000000000010110110111011111111111011111111111000000000000000000000000
00000000001111110000000000001100000000011100000101100000000000000000001011111111111111101111111111111111000000000000000000000000
00000000111111111110000000110000000000011111001101000000000001111100101011011011101101111111111111111111000000000000000000000000
00000011111111111111100000011001000000001111101010000100000000011110000101111111111111111111111111111111000000000000000000000000
00000011111111111111111000100000000000000111110100100000000000001111001011011101111111110111011111011111000000000000000000000000
00000111111010111111111100111010010000000111110110000000000000001111100101101111101101111111111111111111000000000000000000000000
00001111100000101111111110100000011000000011111000101001000000000111110101111101111111111111111111111111000000000000000000000000
00001110100000001011111111110010011000000111111110000001000000001111110010111111111111101111111111111110000000000000000000000000
00011111000000001111111111101000011100001111110100100101100000001111111011101110110111111101111111111111000000000000000000000000
00011110000000001111111111110010011111011111111010000001100000001111111010110111111101111111101111111110000000000000000000000000
00011110000000000111111111111000011111111111111100100101110000011111110101111110111111111111111110111110000000000000000000000000
00011110000000000111111111111101001111111111110110100001111111111111110110111111111111011111111111111110000000000000000000000000
00111100000000000111111111111100010111111111111010001001111111111111111011101110110111111011111111111110000000000000000000000000
00011110000000001111111111111110100111111111101011001000111111111111110101110111111111111111111111111100000000000000000000000000
00011111000000001111111111111110010001111111010101000101011111111111101011111111011101111111111110111100000000000000000000000000
00011111000000001111111111111110101010010101011101110000011111111111010110111011111111111111011111111100000000000000000000000000
00011111100000011111111111111111010101010101101110101010101111111110111111101111101110111011111111111100000000000000000000000000
00011111111011111111111111111111110110110110110110101010000001110101001011111111111111111111111111111100000000000000000000000000
00011111111111111111111111111111101010101101101101101010101010001011111111110110111111111111111111111000000000000000000000000000
00001111111111111111111111111111111111110111101111111010101010101100110110111111101110111111111011111000000000000000000000000000
00001111111111111111111111111111101010111101111010101101101011010111111111111111111111111111111111111000000000000000000000000000
00001111111111111111111111111111111111101110101111111101101010110101101101101101111111011101111111110000000000000000000000000000
00000111111111111111111111111111110101110111111010101111111111111111111111111111101111111111111111110000000000000000000000000000
00000011111111111111111111111111111110111010101111111010101010101101101111110111111111111111111111110000000000000000000000000000
00000011111111111111111111111111110111101111111010110111111111111111111111111111110111111111101111100000000000000000000000000000
00000001111111111111111111111111111101111011011110111111011011101101110111111111111111111111111111100000000000000000000000000000
00000000111111111111111111111111110111011111110111101101111110111111011111111111111101111111111111100000000000000000000000000000
00000000111111111111111111111111111111111010111011111111101111110111111111111111111111101111111111000000000000000000000000000000
00000000011111111111111111111111101011011111111110101101111111011111101111111111111111111111011111010000000000000000000000000000
00000000001111111111111111111111111111110110101111111111011011111101111111111111111111111111111110000100000000000000000000000000
00000000000111111111111111111111110110111111111011101111111111101111111111111111111111111111111110100000000000000000000000000000
00000000000001111111111111111110111111011101111101111101110111111111111111111111111111111111111110010010000000000000000000000000
00000000000000111111111111111011111011110111011111110111111111111111111111101111111111111011111100100000000000000000000000000000
00000000000000000111111111111101011111111111111101111111111111111111111111110101011111111111111010001001000000000000000000000000
00000000000000000001010111111111101110111101101111111111111111111111111111111110100111111111110100100000000000000000000000000000
00000000000000000000000001111111110111111111111111011011111111111111111111111111111000111111110010010100100000000000000000000000
00000000000000000000000000111111111010101111101101111111111111111111111111111111010111011111111100100000000000000000000000000000
00000000000000000000000100001111111111111011111111111110111111111111111111111111111010100111111110001010000000000000000000000000
00000000000000000000100001000011111110101110111111011111110111111111111111111111111111011001111111100000100000000000000000000000
00000000000000000000000000101001111111110111110111110111111111011110111011111111111111101110101111111100000000000000000000000000
00000000000000000000010010000100011111111101011111111111111111111111111111111111111111111010101011100000000000000000000000000000
00000000000000000000000000100101010111111111110101011101110111111111111111110110111111111110111010111111000000000000000000000000
00000000000000000000000000000000010101111111111111110111111111101111111101111111111111111111101101000000100000000000000000000000
00000000000000000000000010010101000101011111111111111111011101111101101110111111111110011111111101100000110000000000000000000000
00000000000000000000000000000000101001010111111111111101110111110111111111111111111010100111111110100000010100000000000000000000
00000000000000000000000000000100000100010010111111111111111111111111111111111111101010010000111110100000000010011111000000000000
00000000000000000000000000100001001001001001001011111111111111111111111111111110101001001010011101010000000011111011110000000000
00000000000000000000000000000000000000100100101001011111111111111111111111101010100100100000000011011110000011110001111000000000
00000000000000000000000000000000100100001001001010010010111111111111111101010001001001001001000000101011100011101010111100000000
00000000000000000000000000000000000001001000100001001010000000100100000001001001001000000000000000000000111111101010111100000000
00000000000000000000000000000000000000000010001010010001010101001010101100100100000010001000000000000001001111100101111110000000
00000000000000000000000000000000000000000000000000001010001000100000100000100010010000000000000000000000000011111011111110000000
00000000000000000000000000000000000000000001001001000000100010001010001010000000000000000000000000000000000111011111111111000000
00000000000000000000000000000000000000000000000000000000000001000000000000010000000000000000000000000000000011111111111111000000
00000000000000000000000000000000000000000000000000010000100000000001000000000000000000000000000000000000000011111111111111000000
00000000000000000000000000000000000000000000000000000000000000000000000000000000000000000000000000000000000001111111111111100000
00000000000000000000000000000000000000000000000000000000000000000000000000000000000000000000000000000000000000111111111111100000
00000000000000000000000000000000000000000000000000000000000000000000000000000000000000000000000000000000000000011111111111100000
00000000000000000000000000000000000000000000000000000000000000000000000000000000000000000000000000000000000000001111111111110000
00000000000000000000000000000000000000000000000000000000000000000000000000000000000000000000000000000000000000000001111111110000
00000000000000000000000000000000000000000000000000000000000000000000000000000000000000000000000000000000000000000000011111110000
00000000000000000000000000000000000000000000000000000000000000000000000000000000000000000000000000000000000000000000000111110000
00000000000000000000000000000000000000000000000000000000000000000000000000000000000000000000000000000000000000000000000001111000
00000000000000000000000000000000000000000000000000000000000000000000000000000000000000000000000000000000000000000000000000011000
00000000000000000000000000000000000000000000000000000000000000000000000000000000000000000000000000000000000000000000000000000000
00000000000000000000000000000000000000000000000000000000000000000000000000000000000000000000000000000000000000000000000000000000
00000000000000000000000000000000000000000000000000000000000000000000000000000000000000000000000000000000000000000000000000000000
00000000000000000000000000000000000000000000000000000000000000000000000000000000000000000000000000000000000000000000000000000000
00000000000000000000000000000000000000000000000000000000000000000000000000000000000000000000000000000000000000000000000000000000
00000000000000000000000000000000000000000000000000000000000000000000000000000000000000000000000000000000000000000000000000000000
00000000000000000000000000000000000000000000000000000000000000000000000000000000000000000000000000000000000000000000000000000000
00000000000000000000000000000000000000000000000000000000000000000000000000000000000000000000000000000000000000000000000000000000
00000000000000000000000000000000000000000000000000000000000000000000000000000000000000000000000000000000000000000000000000000000
00000000000000000000000000000000000000000000000000000000000000000000000000000000000000000000000000000000000000000000000000000000
00000000000000000000000000000000000000000000000000000000000000000000000000000000000000000000000000000000000000000000000000000000
00000000000000000000000000000000000000000000000000000000000000000000000000000000000000000000000000000000000000000000000000000000
00000000000000000000000000000000000000000000000000000000000000000000000000000000000000000000000000000000000000000000000000000000
00000000000000000000000000000000000000000000000000000000000000000000000000000000000000000000000000000000000000000000000000000000
00000000000000000000000000000000000000000000000000000000000000000000000000000000000000000000000000000000000000000000000000000000
00000000000000000000000000000000000000000000000000000000000000000000000000000000000000000000000000000000000000000000000000000000
00000000000000000000000000000000000000000000000000000000000000000000000000000000000000000000000000000000000000000000000000000000
00000000000000000000000000000000000000000000000000000000000000000000000000000000000000000000000000000000000000000000000000000000
00000000000000000000000000000000000000000000000000000000000000000000000000000000000000000000000000000000000000000000000000000000
00000000000000000000000000000000000000000000000000000000000000000000000000000000000000000000000000000000000000000000000000000000
00000000000000000000000000000000000000000000000000000000000000000000000000000000000000000000000000000000000000000000000000000000
00000000000000000000000000000000000000000000000000000000000000000000000000000000000000000000000000000000000000000000000000000000
00000000000000000000000000000000000000000000000000000000000000000000000000000000000000000000000000000000000000000000000000000000
00000000000000000000000000000000000000000000000000000000000000000000000000000000000000000000000000000000000000000000000000000000
00000000000000000000000000000000000000000000000000000000000000000000000000000000000000000000000000000000000000000000000000000000
00000000000000000000000000000000000000000000000000000000000000000000000000000000000000000000000000000000000000000000000000000000
00000000000000000000000000000000000000000000000000000000000000000000000000000000000000000000000000000000000000000000000000000000
00000000000000000000000000000000000000000000000000000000000000000000000000000000000000000000000000000000000000000000000000000000
00000000000000000000000000000000000000000000000000000000000000000000000000000000000000000000000000000000000000000000000000000000
00000000000000000000000000000000000000000000000000000000000000000000000000000000000000000000000000000000000000000000000000000000
00000000000000000000000000000000000000000000000000000000000000000000000000000000000000000000000000000000000000000000000000000000
00000000000000000000000000000000000000000000000000000000000000000000000000000000000000000000000000000000000000000000000000000000
